!!!OTL: 574. Die Fahnenwacht.
!!!COM: Pet. v. Lindpaintner
!!!ODT: 1847
!!!ARE: Europa, Mitteleuropa, Deutschland
!!!SCT: B0574
!!!TXL: @@DE
!!!YEM: Copyright 1995, estate of Helmut Schaffrath.
**kern	**text
*ICvox	*
*Ivox	*
*clefG2	*
*M4/4	*
*met(c)	*
*k[]	*
*C:	*
!LO:TX:a:t=Majeſtätiſch.	!
{8g	Der
=1	=1
4.cc	Sän-
8g	-ger
4.e	hält
8a	im
=2	=2
8.g	Feld
16e	die
8.c	Fah-
16d	-nen-
4e	-wacht,
8r}	.
{8e	in
=3	=3
8.f	ſei-
16c#	-nem
8.d	Ar-
16e	-me
8.f	ruht
16d	das
8.b	Schwert,
16a	das
=4	=4
(4.g	ſchar-
8f	.
4e)	-fe
8r}	.
{8g	er
=5	=5
4.cc	grüßt
8g	mit
4.e	ſei-
8a	-nem
=6	=6
8.g	Lied
16e	die
8.c	ſtil-
16d	-le
4e	Nacht
8r}	.
{8e	und
=7	=7
8.d	ſchlägt
16c#	da-
8.d	-ʒu
16e	mit
8.f#	blut'-
16g	-ger
8.a	Hand
16b	die
=8	=8
(<4.b	Har-
8a)	.
4g	-fe
8r}	.
{8g	Die
=9	=9
8g	Da-
8g	-me,
(8bq	.
8a)	die
8g	ich
4.dd^	lie-
8f	-be.
=10	=10
8e	nenn'
8a	ich
4g	nicht,
8r}	.
{8a	doch
8g	hab'
8cc	ich
=11	=11
4.b	ih-
8b	-re
8.dd	Far-
16cc	-be
8.g	mit
16e	er-
=12	=12
(8.dL	-ko-
32f	.
32eJ)	.
4d	-ren.
4r}	.
{4g	Jch
=13	=13
4cc	ſtrei-
8gL	-te
8a-J	.
4.b-	gern
8e-	für
=14	=14
8a-	Frei-
8a-	-heit,
8eX	Recht
8f	und
4g	Licht,
8r}	.
{8g	ge-
=15	=15
8.g	-treu
16g	der
(8bq	.
8.a)	Fah-
16g	-ne,
8.ee	der
16cc	ich
8.g	ʒu-
16e	-ge-
=16	=16
(4.g	-ſchwo-
8f)	.
4e	-ren,
8r}	.
{8e	ge-
=17	=17
8.d	-treu
16c#	der
8.d	Fah-
16e	-ne,
8f	der
8g	ich
8a	ʒu-
(8eeq	.
8dd)	-ge-
=18	=18
(2b	-ſchwo-
16aqL	.
16bqJ)	.
4cc	-ren.
8r}	.
==	==
!!!AGN: Staende -, Soldaten - Lied
!!!GTL: Soldatenlieder
!!!ONB: ESAC (Essen Associative Code) Database: BOEHME
!!!AMT: simple quadruple
!!!AIN: vox
!!!EED: Helmut Schaffrath
!!!EEV: 1.0
!!!RDF**kern: < = below
!!@@COMMENT:"Text gedichtet 1847 von Feodor Löwe (Hofſchauſpieler in Stuttgart ſeit 1841). Muſik vom
!!dortigen Kapellmeiſter Lindpaintner, op. 114 (1847 erſchienen) iſt ein hübſcher Marſch. Daß
!!aber der Text mit ſeiner Ueberſpanntheit und ſeinem Unſinn geſungen worden, begreift man heute
!!nicht. Es kam das Lied mit ſeiner falſchen Sentimentalität der Kunſtanſchauung des vormärʒlichen
!!Deutſchlands entgegen. Mit Recht wird dieſes Verswerk in einem Artikel ʒur Kritik der Gaſſen-
!!hauer (ſ. Hoffmann, Volksthüml. Lieder S. 176) veralbert. Als Vorbild für Löwe's Verſe und
!!deren Jdeenkreis erkenne ich das ſeit 1830 in Süddeutſchland und der Pfalʒ viel geſungene, aus
!!dem Franʒ. überſetʒte Lied Der Troubadour": "Von Lieb' entbrannt, und ſertig ʒu der Reiſe" (ſ. daſſelbe unten)."
!!@@END:
!!!Text: F. Löwe
!!!URL-scan: https://archive.org/details/BoehmeVtLieder1895/page/n455/mode/2up
!!!ENC: Anna Maria Matuszewska
!!!EEV: 2024/12/07
*-	*-
